icon-themes/breeze_svg/cmd/sc_insertneutralparagraph.svg

<svg viewBox="0 0 16 16" xmlns="http://www.w3.org/2000/svg"><path d="m3 2v1h1v2h-1v1h3v-1h-1v-2h1v-1zm5 0v1h6v-1zm0 2v1h4v-1zm4 9v1h2v-1z" fill="#4d4d4d"/><path d="m8 8v1h6v-1zm0 2v1h2v-1zm3 0v1h3v-1z" fill="#1d99f3"/></svg>

<svg xmlns="http://www.w3.org/2000/svg" viewBox="0 0 16 16">
 <path 
     style="fill:#4d4d4d" 
     d="M 3 2 L 3 3 L 4 3 L 4 5 L 3 5 L 3 6 L 6 6 L 6 5 L 5 5 L 5 3 L 6 3 L 6 2 L 3 2 z M 8 2 L 8 3 L 14 3 L 14 2 L 8 2 z M 8 4 L 8 5 L 12 5 L 12 4 L 8 4 z M 12 13 L 12 14 L 14 14 L 14 13 L 12 13 z "
     />
 <path 
     style="fill:#1d99f3" 
     d="M 8 8 L 8 9 L 14 9 L 14 8 L 8 8 z M 8 10 L 8 11 L 10 11 L 10 10 L 8 10 z M 11 10 L 11 11 L 14 11 L 14 10 L 11 10 z "
     />
 </svg>
